X:33
T: DRAUSS IST ALLES SO PRAECHTIG
N: E0646
O: Europa, Mitteleuropa, Deutschland, Schwaben
R: Liebes - Lied, Jahreszeit, Fruehling
M: 3/4
L: 1/8
K: A
EE | F2E2c2 | c2B2
AG | B2A2F2 | E4
cc | c2B3B | c2B2
e2 | ^d3BAF | E4
E2 | d2dcBA | AGG2
EE | d2dcBA | A2G2
E2 | c3cee | e2d2
cB | AEc2B2 | A4
(3ECF | Ecc2B2 | A4

@@@ Tune index: 4346
